X: 28120
T: Mrs Capron's
R: reel
M: 4/4
K: Gmajor
G2FG EGDc|BGFG ECDF|G2FG EFDE|CDB,D A,B,G,F|
G2FG EGDc|BGFG ECDF|G2FG EGDc|BGAF GFGA||

